Flat-Remix-Dark/apps/scalable/hp_logo.svg

<svg width="512" height="512" version="1.1" viewBox="0 0 384 384" xmlns="http://www.w3.org/2000/svg">
 <path d="m360.75 191.99609c0 93.195312-75.554688 168.74219-168.75 168.74219-93.203125 0-168.75-75.554687-168.75-168.74219 0-93.199219 75.554688-168.74609 168.75-168.74609 93.203125 0 168.75 75.554688 168.75 168.74609" style="fill-rule:evenodd;fill:rgb(6.666%,17.647%,36.078%)"/>
 <path d="m193.98828 55.703125c-18.53125 0.433594-37.003906 0.992187-38.113281 23.679687-19.949219 55.566407-39.53125 111.24609-59.574219 166.77344 3.675781 2.328125 5.382813 5.835938 9.058594 8.164062 2.269531 2.882813 4.664063 5.621094 7.949219 7.953126 1.867187 3.234374 5.824218 5.339843 7.683594 8.574218 3.707031 2.34375 5.363281 5.824219 9.058593 8.167969 1.898438 3.25 5.816407 5.339844 7.710938 8.597656 3.675781 2.328125 5.382812 5.839844 9.058593 8.167969 1.894532 3.253906 5.804688 5.332031 7.707032 8.597656 3.699218 2.335938 5.355468 5.820313 9.058594 8.167969 2.34375 5.21875-7.234376 17.300781-0.578126 19.730469 2.679688 1.707031 4.707032 3.792968 6.191407 6.191406 3.777343 2.265625 5.296875 5.820312 9.082031 8.09375 1.8125 3.332031 5.859375 5.335938 7.683594 8.671875 2.507812 1.503906 4.050781 3.609375 5.925781 5.515625h0.097656c85.453125 0 156.07031-63.535156 167.21484-145.93359-18.800781-18.847656-37.496094-37.804687-56.035156-56.925781-8.140625-7.042969-14.308594-18.757813-26.449219-18.691406-2.359375-3.054688-5.96875-5.050781-7.757812-8.527344-3.972657-1.882813-5.1875-5.925781-9.175782-7.804687-1.589844-3.707032-5.972656-5.242188-7.566406-8.9375-3.976562-1.90625-5.214844-5.917969-9.175781-7.828126-1.628907-3.679687-5.976563-5.25-7.589844-8.9375-3.972656-1.902343-5.21875-5.914062-9.179687-7.832031-1.621094-3.675781-5.96875-5.238281-7.589844-8.9375-3.976563-1.878906-5.1875-5.925781-9.175782-7.804687-1.59375-3.707032-5.972656-5.242188-7.566406-8.9375-3.214844-2.058594-6.054687-4.878906-7.949218-7.949219" style="fill-opacity:.235294;fill:rgb(0%,0%,0%)"/>
 <path d="m163.24609 58.910156c-22.527344 62.371094-44.429688 124.86719-66.945313 187.25391 1.4375 0.4375 2.859375 0.273438 4.335938 0.289063 8.207031-0.039063 16.4375 0.03125 24.644531 0 1.117188-0.007813 0.976562-1.601563 1.445312-2.3125 9.890626-27.882813 19.953126-55.625 29.871094-83.492187 0.597656-1.730469 1.230469-3.566407 2.027344-5.207032 5.140625 0.089844 10.226562-0.078125 15.367188 0-10.785157 30.210938-21.527344 60.570313-32.46875 90.726563 1.144531 0.457031 2.269531 0.265625 3.46875 0.289062 8.621093-0.082031 17.179687 0.117188 25.800781 0 9.738281-27.449219 19.820312-54.878906 29.585937-82.316406 2.089844-5.609375 2.164063-12.214844-1.15625-17.390625-2.894531-4.582031-8.386718-7.039062-13.632812-7.25-7.175782-0.214844-14.257813 0.125-21.441406 0 9.871093-27.984375 20.050781-55.773438 29.847656-83.789062-30.699219 3.207031-24.730469 2.527343-30.738282 3.203124m64.082032 80.003907c-0.222656 0.457031-0.355469 1.570312-0.578125 2.023437-22.335938 62.648438-44.835938 125.21094-67.261719 187.83203 28.3125 4.105468 7.898438 1.285156 28.40625 4.070312 9.785156-27.496094 19.707031-54.863281 29.585938-82.339844 10.746093-0.195312 21.414062-0.089844 32.160156-0.289062 6.859375-0.234375 13.695312-4.351563 15.949218-11.007813 9.089844-25.554687 18.15625-50.867187 26.957032-76.53125 1.445312-3.878906 2.308594-8.109375 1.15625-12.164062-1.554688-5.144531-6.234375-9.070313-11.296875-10.433594-4.398438-1.363281-8.796875-0.785156-13.324219-0.867187-13.792969-0.039063-27.957031-0.152344-41.75-0.289063m25.269531 16.140625c0.652344-0.003906 1.332031 0.167969 1.976563 0.074219 3.984375 0.070312 7.890625-0.085938 11.875 0-9.28125 26.449219-18.691406 52.941406-27.820313 79.445312-5.160156 0.367188-10.492187 0.03125-15.660156 0 9.421875-26.277343 18.695313-52.566406 28.113281-78.84375 0.214844-0.242187 0.609375-0.519531 0.894532-0.601562 0.210937-0.0625 0.40625-0.070313 0.625-0.074219" style="fill:rgb(100.000%,100.000%,100.000%)"/>
 <path transform="scale(.75)" d="m256 31.007812c-124.26039 0-225 100.72852-225 224.99414 0 1.67172 0.028173 3.33699 0.064453 5 2.660528-121.95508 102.34701-219.99414 224.93555-219.99414 122.59885 0 222.27529 98.048798 224.93555 219.99414 0.03626-1.66259 0.06445-3.3287 0.06445-5 0-124.2552-100.72916-224.99414-225-224.99414z" style="fill-rule:evenodd;fill:#ffffff;opacity:.3"/>
 <path transform="scale(.75)" d="m31.064453 251.00195c-0.036284 1.66322-0.064453 3.32808-0.064453 5 0 124.25002 100.72918 224.99024 225 224.99024 124.26041 0 225-100.7298 225-224.99024 0-1.67178-0.02817-3.33691-0.06445-5-2.65965 121.9509-102.34643 219.99024-224.93555 219.99024-122.59883 0-222.27529-98.04986-224.93555-219.99024z" style="fill-rule:evenodd;opacity:.3"/>
</svg>

<svg xmlns="http://www.w3.org/2000/svg" width="384pt" height="384pt" version="1.1" viewBox="0 0 384 384"> <g> <path style="fill-rule:evenodd;fill:rgb(6.666%,17.647%,36.078%)" d="M 360.75 191.996094 C 360.75 285.191406 285.195312 360.738281 192 360.738281 C 98.796875 360.738281 23.25 285.183594 23.25 191.996094 C 23.25 98.796875 98.804688 23.25 192 23.25 C 285.203125 23.25 360.75 98.804688 360.75 191.996094"/> <path style="fill:rgb(0%,0%,0%);fill-opacity:0.235294" d="M 193.988281 55.703125 C 175.457031 56.136719 156.984375 56.695312 155.875 79.382812 C 135.925781 134.949219 116.34375 190.628906 96.300781 246.15625 C 99.976562 248.484375 101.683594 251.992188 105.359375 254.320312 C 107.628906 257.203125 110.023438 259.941406 113.308594 262.273438 C 115.175781 265.507812 119.132812 267.613281 120.992188 270.847656 C 124.699219 273.191406 126.355469 276.671875 130.050781 279.015625 C 131.949219 282.265625 135.867188 284.355469 137.761719 287.613281 C 141.4375 289.941406 143.144531 293.453125 146.820312 295.78125 C 148.714844 299.035156 152.625 301.113281 154.527344 304.378906 C 158.226562 306.714844 159.882812 310.199219 163.585938 312.546875 C 165.929688 317.765625 156.351562 329.847656 163.007812 332.277344 C 165.6875 333.984375 167.714844 336.070312 169.199219 338.46875 C 172.976562 340.734375 174.496094 344.289062 178.28125 346.5625 C 180.09375 349.894531 184.140625 351.898438 185.964844 355.234375 C 188.472656 356.738281 190.015625 358.84375 191.890625 360.75 C 191.925781 360.75 191.957031 360.75 191.988281 360.75 C 277.441406 360.75 348.058594 297.214844 359.203125 214.816406 C 340.402344 195.96875 321.707031 177.011719 303.167969 157.890625 C 295.027344 150.847656 288.859375 139.132812 276.71875 139.199219 C 274.359375 136.144531 270.75 134.148438 268.960938 130.671875 C 264.988281 128.789062 263.773438 124.746094 259.785156 122.867188 C 258.195312 119.160156 253.8125 117.625 252.21875 113.929688 C 248.242188 112.023438 247.003906 108.011719 243.042969 106.101562 C 241.414062 102.421875 237.066406 100.851562 235.453125 97.164062 C 231.480469 95.261719 230.234375 91.25 226.273438 89.332031 C 224.652344 85.65625 220.304688 84.09375 218.683594 80.394531 C 214.707031 78.515625 213.496094 74.46875 209.507812 72.589844 C 207.914062 68.882812 203.535156 67.347656 201.941406 63.652344 C 198.726562 61.59375 195.886719 58.773438 193.992188 55.703125"/> <path style="fill:rgb(100.000%,100.000%,100.000%)" d="M 163.246094 58.910156 C 140.71875 121.28125 118.816406 183.777344 96.300781 246.164062 C 97.738281 246.601562 99.160156 246.4375 100.636719 246.453125 C 108.84375 246.414062 117.074219 246.484375 125.28125 246.453125 C 126.398438 246.445312 126.257812 244.851562 126.726562 244.140625 C 136.617188 216.257812 146.679688 188.515625 156.597656 160.648438 C 157.195312 158.917969 157.828125 157.082031 158.625 155.441406 C 163.765625 155.53125 168.851562 155.363281 173.992188 155.441406 C 163.207031 185.652344 152.464844 216.011719 141.523438 246.167969 C 142.667969 246.625 143.792969 246.433594 144.992188 246.457031 C 153.613281 246.375 162.171875 246.574219 170.792969 246.457031 C 180.53125 219.007812 190.613281 191.578125 200.378906 164.140625 C 202.46875 158.53125 202.542969 151.925781 199.222656 146.75 C 196.328125 142.167969 190.835938 139.710938 185.589844 139.5 C 178.414062 139.285156 171.332031 139.625 164.148438 139.5 C 174.019531 111.515625 184.199219 83.726562 193.996094 55.710938 C 163.296875 58.917969 169.265625 58.238281 163.257812 58.914062 M 227.339844 138.917969 C 227.117188 139.375 226.984375 140.488281 226.761719 140.941406 C 204.425781 203.589844 181.925781 266.152344 159.5 328.773438 C 187.8125 332.878906 167.398438 330.058594 187.90625 332.84375 C 197.691406 305.347656 207.613281 277.980469 217.492188 250.503906 C 228.238281 250.308594 238.90625 250.414062 249.652344 250.214844 C 256.511719 249.980469 263.347656 245.863281 265.601562 239.207031 C 274.691406 213.652344 283.757812 188.339844 292.558594 162.675781 C 294.003906 158.796875 294.867188 154.566406 293.714844 150.511719 C 292.160156 145.367188 287.480469 141.441406 282.417969 140.078125 C 278.019531 138.714844 273.621094 139.292969 269.09375 139.210938 C 255.300781 139.171875 241.136719 139.058594 227.34375 138.921875 M 252.613281 155.0625 C 253.265625 155.058594 253.945312 155.230469 254.589844 155.136719 C 258.574219 155.207031 262.480469 155.050781 266.464844 155.136719 C 257.183594 181.585938 247.773438 208.078125 238.644531 234.582031 C 233.484375 234.949219 228.152344 234.613281 222.984375 234.582031 C 232.40625 208.304688 241.679688 182.015625 251.097656 155.738281 C 251.3125 155.496094 251.707031 155.21875 251.992188 155.136719 C 252.203125 155.074219 252.398438 155.066406 252.617188 155.0625"/> </g> </svg>
